packages/foundations/assets/icons/functional/images/social/share_14.svg

<svg width="14" height="14" viewBox="0 0 14 14" fill="none" xmlns="http://www.w3.org/2000/svg">
<g clip-path="url(#clip0_187_429)">
<path fill-rule="evenodd" clip-rule="evenodd" d="M10.154 1.40002C11.5129 1.40002 12.6 2.48856 12.6 3.84913C12.6 5.19539 11.5129 6.29824 10.154 6.29824C9.42455 6.29824 8.7666 5.96881 8.32318 5.4532L6.23478 6.45579C6.27765 6.62766 6.29194 6.81384 6.29194 7.00002C6.29194 7.1862 6.27765 7.37238 6.23478 7.54425L8.30881 8.53247C8.7666 8.03124 9.42455 7.70181 10.154 7.70181C11.4987 7.70181 12.6 8.80466 12.6 10.1509C12.6 11.5115 11.4987 12.6 10.154 12.6C8.79518 12.6 7.7081 11.5115 7.7081 10.1509C7.7081 10.0364 7.7224 9.90742 7.73669 9.80718L5.53388 8.77596C5.10475 9.19133 4.50397 9.44913 3.84602 9.44913C2.50139 9.44913 1.40002 8.34629 1.40002 7.00002C1.40002 5.63945 2.50139 4.55092 3.84602 4.55092C4.50397 4.55092 5.10475 4.80872 5.54817 5.22409L7.73669 4.17856C7.7224 4.07831 7.7081 3.96369 7.7081 3.84913C7.7081 2.48856 8.80947 1.40002 10.154 1.40002ZM10.154 9.10539C9.58191 9.10539 9.1099 9.578 9.1099 10.1509C9.1099 10.7238 9.58191 11.1964 10.154 11.1964C10.7262 11.1964 11.1982 10.7238 11.1982 10.1509C11.1982 9.578 10.7262 9.10539 10.154 9.10539ZM3.84602 5.9545C3.27382 5.9545 2.80182 6.41279 2.80182 7.00002C2.80182 7.57295 3.27382 8.04555 3.84602 8.04555C4.43244 8.04555 4.90451 7.57295 4.90451 7.00002C4.90451 6.41279 4.43244 5.9545 3.84602 5.9545ZM10.154 2.78929C9.58191 2.78929 9.1099 3.2619 9.1099 3.84913C9.1099 4.42205 9.58191 4.89466 10.154 4.89466C10.7405 4.89466 11.2125 4.42205 11.2125 3.84913C11.2125 3.2619 10.7405 2.78929 10.154 2.78929Z" fill="#1A1C1F"/>
</g>
<defs>
<clipPath id="clip0_187_429">
<rect width="14" height="14" fill="white"/>
</clipPath>
</defs>
</svg>

<svg xmlns="http://www.w3.org/2000/svg" width="14" height="14" fill="none"><g clip-path="url(#a)"><path fill="#1A1C1F" fill-rule="evenodd" d="M10.154 1.4A2.437 2.437 0 0 1 12.6 3.85a2.446 2.446 0 0 1-2.446 2.448c-.73 0-1.387-.33-1.83-.845l-2.09 1.003c.044.172.058.358.058.544s-.014.372-.057.544l2.074.988a2.5 2.5 0 0 1 1.845-.83A2.456 2.456 0 0 1 12.6 10.15c0 1.36-1.101 2.449-2.446 2.449a2.437 2.437 0 0 1-2.446-2.45c0-.114.014-.243.029-.343L5.534 8.776c-.43.415-1.03.673-1.688.673A2.456 2.456 0 0 1 1.4 7c0-1.36 1.101-2.45 2.446-2.45.658 0 1.259.259 1.702.674L7.737 4.18a2.4 2.4 0 0 1-.029-.33c0-1.36 1.101-2.449 2.446-2.449m0 7.705a1.05 1.05 0 0 0-1.044 1.046 1.05 1.05 0 0 0 1.044 1.045 1.05 1.05 0 0 0 1.044-1.045 1.05 1.05 0 0 0-1.044-1.046m-6.308-3.15c-.572 0-1.044.458-1.044 1.045a1.05 1.05 0 0 0 2.103 0c0-.587-.473-1.045-1.059-1.045m6.308-3.166a1.054 1.054 0 0 0 0 2.106c.587 0 1.059-.473 1.059-1.046 0-.587-.472-1.06-1.059-1.06" clip-rule="evenodd"/></g><defs><clipPath id="a"><path fill="#fff" d="M0 0h14v14H0z"/></clipPath></defs></svg>
